!!!!SEGMENT: 025_1-6-1d-BH-004.krn
!!!COM: F. Chopin
!!!OTL: 4me ETUDE.
!!!OPS: Op. 25
!!!OPR: Douze Etudes
!!!OCL: Breitkopf & Härtel
!!!NIFC-rismID: 1001014795
!!!OMD: [quarter] = 160.
!!!OMD: Agitato.
!!!system-decoration: {(s1,s2)}
**kern	**kern	**dynam
*part1	*part1	*part1
*staff2	*staff1	*
*clefF4	*clefG2	*
*k[]	*k[]	*
*M2/2	*M2/2	*
*met(c|)	*met(c|)	*
(4E^<	4r	p
=1	=1	=1
8AA`>L)	8r	.
8E`>J 8c`>	8e\`> 8a`>\ 8ee`>\	.
8C`>L	8r	.
8A`>J 8e`>	8a`> 8ee`> 8aa`>	.
8BB`>L	8r	.
8F`>J 8d`>	8a`> 8dd`> 8aa`>	.
8E`>L	8r	.
8B`>J 8e`>	8g#X`> 8ee`> 8gg#X`>	.
=2	=2	=2
8C`>L	8r	.
8A`>J 8e`>	8a`> 8ee`>	.
8AA`>L	8r	.
8A`>J 8e`>	8cc`> 8ee`> 8ccc`>	<
8D`>L	8r	.
8A`>J 8f`>	8cc`> 8ff`> 8ccc`>	.
8D`>L	8r	.
8G#X`>J 8f`>	8b`> 8ff`> 8bb`>	.
=3	=3	=3
8C`>L	8r	.
8A`>J 8f`>	8a`> 8ff`> 8aa`>	.
8C`>L	8r	.
8A`>J 8e`>	8ee`> 8aa`> 8eee`>	.
8BB`>L	8r	[
8F`>J 8d`>	8dd`> 8aa`> 8ddd`>	.
8EE`>L<	8r	.
8E`>J 8B`> 8d`>	8ee`> 8gg#X`> 8eee`>	.
=4	=4	=4
!!linebreak:original
8AA`>L	8r	.
8E`>J 8c`>	8cc`> 8ee`> 8ccc`>	>
8BB`>L	8r	.
8E`>J 8d`>	8g#X`> 8ee`> 8gg#X`>	.
8C`>L	8r	.
8E`>J 8e`>	8a`> 8ee`> 8aa`>	.
8AA`>L	8r	.
8E`>J 8c`>	8cc`> 8ee`> 8ccc`>	]
=5	=5	=5
8EE`>L<	8r	.
8E`>J 8d`>	8b` 8ee 8bb	.
8AA`>L	8r	.
8E`>J 8c`>	8a` 8ee 8aa	.
8BB`>L	8r	.
8E`>J 8G#X`> 8d`>	8e\` 8b\ 8ee\	.
8AA`>L	8r	.
8E`>J 8A`> 8c`>	8a` 8ee 8aa	.
=6	=6	=6
8EE`>L<	8r	.
8E`>J 8G#X`> 8d	8b`> 8ee`> 8bb`>	.
8AA`>L	8r	.
8E`>J 8A`> 8c`>	8a`> 8ee`> 8aa`>	.
8BB`>L	8r	.
8E`>J 8G#`> 8d`>	8e`>\ 8b`>\ 8ee`>\	<
8AA`>L	8r	.
8E`>J 8A`> 8c`>	8a`> 8ee`> 8aa`>	.
=7	=7	=7
8GGn`>L	8r	.
8Gny`>J 8e`>	8b`> 8ee`> 8bb`>	.
8AA`>L	8r	.
8A`>J 8e`>	8cc`> 8ee`> 8ccc`>	.
8BB`>L	8r	[
8B`>J 8e`>	8g`> 8b`> 8gg`>	>
8BB`>L	8r	.
8B`>J 8d#X`>	8a`> 8b`> 8ff#X`>	]]
=8	=8	=8
!!linebreak:original
8E`>L	8r	.
8B`>J 8e`>	8g#X`> 8b`> 8ee`>	.
8D#X`>L	8r	[
8c`>J 8f#X`>	8a`> 8cc`> 8ff#X`>	.
8Dn`>L	8r	.
8B`>J 8fn`>	8gn` 8b`> 8ffn`> 8ggn`>	.
!LO:TX:t=złamana belka	!	!
8EE`>/L	8r	.
8B`>J\ 8e`>\	8g#X`> 8dd`> 8ee`> 8gg#X`>	.
=9	=9	=9
*	*^	*
8AA`>L	4.reeeyy	8r	[
8A`>J 8e`>	.	8a`> 8cc`> 8ee`> 8aa`>	.
8C`>L	.	8r	.
!	!	!LO:TX:b:i:t=staccato.	!
8A`>J 8e`>	(2aa^>	8a`< 8ee`<	>
!	!	!LO:TX:a:i:t=legato.	!
8BB`>L	.	8r	.
8F`>J 8d`>	.	8a`> 8dd`>	.
8E`>L	.	8r	.
8B`>J 8e`>	8gg#X)	8g#X`< 8ee`<	]
=10	=10	=10	=10
8C`>L	4.reeeyy	8r	.
8A`>J 8e`>	.	8a`> 8ee`>	.
8AA`>L	.	8r	.
8A`>J 8e`>	(2ccc^>	8cc 8ee	>
8D`>L	.	8r	.
8A`>J 8f`>	.	8cc 8ff	.
8D`>L	.	8r	.
8G#X`>J 8f`>	[8bb)	8b 8ff	]
=11	=11	=11	=11
!!linebreak:original
8C`>L	8bbL]	8r	.
8A`>J 8f`>	8aaJ	8a 8ff	<
8C`>L	8rccc	8r	.
8A`>J 8e`>	(4eee	8ee 8aa	.
8BB`>L	.	8r	.
8F`>J 8d`>	4ddd	8dd 8aa	.
!LO:TX:t=złamana belka	!	!	!
8EE`>L/	.	8r	.
8E`>J\ 8B`>\ 8d`>\	[8eee)	8ee 8gg#X	[
=12	=12	=12	=12
8AA`>L	8eee]	8r	.
8E`>J 8c`>	(4ccc	8cc 8ee	>
8BB`>L	.	8r	.
8E`>J 8G#X`> 8d`>	4bb	8b 8ee	.
8C`>L	.	8r	.
8E`>J 8A`> 8e`>	4.aa)	8a 8ee	]
8AA`>L	.	8r	.
8E`>J 8c`>	.	8cc`> 8ee`>	.
=13	=13	=13	=13
!LO:TX:t=złamana belka	!	!	!
8EE`>L/	8rcccyyy	8r	.
8E`>J\ 8d`>\	(4bb	8b 8ee	.
8AA`>L	.	8r	.
8E`>J 8c`>	4aa	8a 8ee	.
8BB`>L	.	8r	.
8E`>J 8G#X`> 8d`>	4ee	8e 8b	.
8AA`>L	.	8r	.
8E`>J 8A`> 8c`>	8aa)	8a 8ee	.
=14	=14	=14	=14
!!linebreak:original
!LO:TX:t=złamana belka	!	!	!
8EE`>/L	8reeeyy	8r	.
8E`>\J 8G#X`>\ 8d`>\	(4bb	8b 8ee	<
8AA`>L	.	8r	.
8E`>J 8A`> 8c`>	4aa	8a 8ee	.
8BB`>L	.	8r	.
8E`>J 8G#`> 8d`>	4ee	8e 8b	.
8AA`>L	.	8r	.
8E`>J 8A`> 8c`>	8aa)	8a 8ee	.
=15	=15	=15	=15
8GG`>nL	8reeeyy	8r	.
8Gny`>J 8e`>	(4bb	8b 8ee	.
8AA`>L	.	8r	.
8A`>J 8e`>	4ccc	8cc 8ee	.
8BB`>L	.	8r	[
8B`>J 8e`>	4gg	8g 8b	.
8BB`>L	.	8r	.
8B`>J 8d#X`>	[8ff#X	8a 8b	.
=16	=16	=16	=16
8E`>L	8ff#]	8r	.
8B`>J 8e`>	2..ee	8g 8b	>
8AA`>L	.	8r	.
8A`>J 8e`>	.	8a`> 8cc`>	.
8E`>L	.	8r	.
8B`>J 8e`>	.	8g`> 8b`>	.
8AA`>L	.	8r	.
8A`>J 8e`>	.	8a`> 8cc`>)	]
=17	=17	=17	=17
!!pagebreak:original
8GG`>L	8rcccyy	8r	pp
8G`>J 8e`>	(4bb	8b`< 8ee`<	.
8AA`>L	.	8r	.
8A`>J 8e`>	4ccc	8cc`< 8ee`<	.
8BB`>L	.	8r	.
8B`>J 8e`>	4gg	8g`< 8b`<	.
8BB`>L	.	8r	.
8B`>J 8d#X`>	8ff#X	8a`< 8b`<	.
=18	=18	=18	=18
8E`L	8rcccyy	8r	<
8G`>J 8B`> 8e`>	2ee	8g`< 8b`<	.
8D#X`>L	.	8r	.
8G`>J 8B`> 8e`>	.	8g`< 8b`<	.
8Dn`>L	.	8r	.
8G#X`>J 8B`> 8f`>	4.ff)	8g#X`< 8b`<	.
8D-X`>L	.	8r	.
8G#`>J 8B`> 8f`>	.	8g#`< 8b`<	[
*	*v	*v	*
=19	=19	=19
*ped	*	*
8C`>L	8r	f
8A`>J 8f`>	(4a^> 4cc^> 4aa^>	.
8C`>L	.	.
*Xped	*	*
8A-X`>J 8f`>	4a-X^> 4b^> 4aa-X^>	.
!LO:N:vis=8.	!	!
*ped	*	*
8C`>L	.	.
8G`>J 8e`>	8g^> 8b-X^> 8gg^>)	.
8C`>L	8r	.
8G`>J 8c`>	8e^> 8b-^> 8cc^>	.
=20	=20	=20
!!linebreak:original
8C`>L	8r	.
8G`>J 8e`>	8g^> 8b-X^> 8gg^>	.
8C`>L	8r	.
8G`>J 8c`>	8e^> 8b-^> 8cc^>	.
8C`>L	8r	.
*Xped	*	*
8G`>J 8e`>	8g^> 8b-^> 8gg^>	.
8F`>L	8r	.
8A`>J 8f`>	8a^> 8ff^>	.
=21	=21	=21
*ped	*	*
8AA-X`>L	8r	.
8F`>J 8d-X`>	(4f^> 4a-X^> 4ff^>	.
8AA-`>L	.	.
*Xped	*	*
8F-X`>J 8d-`>	4f-X^> 4g^> 4ff-X^>	.
*ped	*	*
8AA-`>L	.	.
8E-X`>J 8c`>	8e-X^> 8g-X^> 8ee-X^>)	.
8AA-`>L<	8r	.
8E-`>J 8A-X`>	8c^> 8g-^> 8a-^>	.
=22	=22	=22
*	*^	*
8AA-X`>L	2reeeyy	8r	.
8E-X`>J 8c`>	.	8g-X^> 8a-X^> 8ee-X^>	.
8AA-`>L<	.	8r	.
8E-`>J 8A-y`>	.	8c^> 8g-^> 8a-^>	.
8AA-`>L	8reeeyy	8r	.
*Xped	*	*	*
8E-`>J 8c`>	(4ee-^>	8g- 8a-	.
8AA-`>L	.	8rg	.
8F`>J 8d-X`>	[>8dd-XL	8f 8a-	.
=23	=23	=23	=23
!!linebreak:original
8AA-X`>L	8dd-J]	8rg	.
!	!	!LO:TX:a:i:t=cre- - -	!
8E-X`>J 8c`>	4cc	8e-X 8a-X	.
8AA-`>L<	.	8rg	.
8D-X`>J 8B-X`>	4b-X	8d-X 8a-	.
8AA-`>L<	.	8rg	.
8C`>J 8A-y`>	4a-	8c	.
8AA-`>L	.	8rg	.
8G-X`>J 8e-X`>	[<8ee-XL	8g-X 8a-	.
=24	=24	=24	=24
8AA-XL	8ee-XJ]	8rg	.
8FJ 8d-X	4dd-X	8f 8a-X	.
8AA-L<	.	8rg	.
8D-XJ 8B-X	4b-X	8d-X 8a-	.
8AA-L	.	8rg	.
8FJ 8d-	4dd-	8f 8a-	.
8AA-L	.	8rg	.
8E-XJ 8c	[<8ccL	8e-X 8a-	.
=25	=25	=25	=25
8AA-X`>L	8ccJ]	8re	.
8G-X`>J 8e-X`>	4ee-X	8g-X 8a-X	.
8AA-`>L	.	8rg	.
8F`>J 8d-X`>	4dd-X	8f 8a-	.
8AA-`>L	.	8rg	.
8E-X`>J 8c`>	4cc	8e-X 8a-	.
*ped	*	*	*
8AAn`>L	.	8rg	.
!	!LO:TX:a:i:t=scen- - -	!	!
8G-`>J 8f`>	[<8ffL	8g-X 8cc	.
=26	=26	=26	=26
!!linebreak:original
8AA`>L	8ffJ]	8rg	.
*Xped	*	*	*
8G-X`>J 8e-X`>	4ee-X	8g-X 8cc	.
8AA`>L	.	8rg	.
8G-`>J 8c`>	4cc	8e-X 8g-	.
8BB-X`>L	.	8rg	.
8G-`>J 8e-`>	4ee-	8g- 8b-X	.
8BB-`>L	.	8rg	.
8F`>J 8dn`>	[<8ddnL	8f 8b-	.
=27	=27	=27	=27
!	!LO:TX:a:i:t=do.	!	!
8BBn`>L	8ddJ])	8rg	f
8A-X`>J 8f`>	(4aa-X	8a-X 8dd	.
8BB`>L	.	8rg	.
8G`>J 8f`>	4gg	8g 8dd	.
8C`>L	.	8rg	.
8G`>J 8c`>	4.rcccyy	4en/ 4b-X/ 4cc/	.
8FF`>L<	.	.	.
8F`>J 8c`>	.	8f 8a- 8ff)	.
*	*v	*v	*
=28	=28	=28
8BBn`>L	8r	.
8A-X`>J 8f`>	8a-X^> 8dd^> 8aa-X^>	.
8BB`>L	8r	.
8G`>J 8f`>	8g^> 8dd^> 8gg^>	.
8C`>L	8r	.
8G`>J 8c`>	8e^> 8b-X^> 8cc^>	.
8FF`>L<	8r	.
8F`>J 8c`>	8f^> 8a-^> 8ff^>	.
=29	=29	=29
!!linebreak:original
8EE-X`>L<	8r	.
8E-X`>J 8c`>	8g`> 8cc`> 8gg`>	.
8FF`>L<	8r	.
8FJ 8c	8a-X`> 8cc`> 8aa-X`>	.
8GGL	8r	.
8GJ 8c	8e-X\`> 8g`>\ 8ee-X`>\	.
8GGL	8r	.
8GJ 8Bn	8f`> 8g`> 8dd`>	.
=30	=30	=30
*	*^	*
8C`>L	8r	8raayy	.
8G`>J 8c`>	(2..cc^>	8e-X 8g	.
8FF`>L<	.	8re	.
8F`>J 8c	.	8f 8a-X	.
8C`>L	.	8re	.
8G`>J 8c`>	.	8e- 8g	.
8FF`>L<	.	8re	.
8F`>J 8c`>	.	8f 8a-	.
=31	=31	=31	=31
*ped	*	*	*
8EE-X`>L<	2..rcccyy	8r	pp
*Xped	*	*	*
!	!	!LO:TX:b:i:t=poco ritenuto.	!
8E-X`>J 8c`>	.	4g^> 4cc^> 4gg^>	.
*ped	*	*	*
8FF`>L<	.	.	.
*Xped	*	*	*
8F`>J 8c`>	.	4a-X^> 4cc^> 4aa-X^>	.
*ped	*	*	*
8GG`>L	.	.	.
*Xped	*	*	*
8G`>J 8c`>	.	4e-X^> 4g^> 4ee-X^>	.
*ped	*	*	*
8GG`>L	.	.	.
*Xped	*	*	*
8G`>J 8B`>	[<8dd	8f 8g	.
=32	=32	=32	=32
*ped	*	*	*
8C`L	8dd]	8re	.
*Xped	*	*	*
8G`>J 8c`>	2..cc^>	8en 8g	.
8FF`>L<	.	8re	.
8F`>J 8c`>	.	8f 8a-X	.
8C`>L	.	8re	.
8G`>J 8c`>	.	8e 8g	.
8FF`>L<	.	8re	.
8F`>J 8c`>	.	8f 8a-)	.
*	*v	*v	*
=33	=33	=33
!!pagebreak:original
*ped	*	*
8EE-X`>L<	8r	f
*Xped	*	*
8E-X`J 8c	4g^> 4cc^> 4gg^>	<
*ped	*	*
8FF`L<	.	.
*Xped	*	*
8F`J 8c	4a-X^> 4cc^> 4aa-X^>	.
*ped	*	*
8AA-X`L	.	.
*Xped	*	*
8A-X`J 8c 8f	4cc^> 4ff^> 4ccc^>	.
*ped	*	*
8GG`>L	.	.
*Xped	*	*
8G`J 8d 8g	8dd^> 8gg^> 8bb^>	[
=34	=34	=34
*	*^	*
*ped	*	*	*
8C`>L	2..rgggyy	8r	.
*Xped	*	*	*
8c`>J 8g`>	.	4b-X^> 4ee^> 4bb-X^>	>
8F`>L	.	.	.
8c`>J 8f`>	.	4a-X^> 4ff^> 4aa-X^>	.
8G`>L	.	.	.
8c`>J 8e-X`>	.	8g^> 8ee-X^> 8gg^>	]
*ped	*	*	*
8GG`>L	.	8r	.
*Xped	*	*	*
8G`>J 8d`>	([<8bnL	8f 8g	.
=35	=35	=35	=35
*ped	*	*	*
8C`>L	8bnXJ]	8re	p
*Xped	*	*	*
8G`>J 8c`>	4cc	8e 8g	.
8BBn`>L	.	8re	.
8A-X`>J 8d-X`>	4dd-X	8f 8a-X	<
8C`>L	.	8re	.
8G`>J 8c`>	4cc	8e 8g	.
8BB`>L	.	8re	.
8A-`>J 8dn`>	[<8ddnL	8f 8a-	.
=36	=36	=36	=36
!!linebreak:original
8C`>L	8ddJ]	8re	.
8G`>J 8c`>	4cc	8e 8g	.
8BBn`>L	.	8re	.
8A-X`>J 8d-X`>	4dd-X	8f 8a-X	.
8C`>L	.	8re	.
8G`>J 8c`>	4cc	8e 8g	.
8BB`>L	.	8re	[
8A-`>J 8dn`>	[<8ddnL	8f 8a-	.
=37	=37	=37	=37
8C`>L	8ddJ]	8re	.
8c`>J	4cc	8e 8g	.
8BBn`>L	.	8re	.
8A-X`>J 8d`>	4dd	8f 8a-X	.
8C`>L	.	8re	>
8G`>J 8c`>	4cc	8e 8g	.
8BB`>L	.	8re	.
8A-`>J 8d-X`>	[<8dd-XL	8f 8a-	.
=38	=38	=38	=38
8C`>L	8dd-J]	8re	.
8G`>J 8c`>	4cc	8e 8g	.
8BB`>L	.	8re	.
8G#X`>J 8dn`>	4ddn	8f 8g#X	.
8BB`>L	.	8re	.
8A`>J 8d#X`>	4dd#X	8f#X 8a	.
*ped	*	*	*
8EE`>L<	.	8re	.
*Xped	*	*	*
8E`>J 8B`> 8dn`>	[<8eeL	8e 8g#	]
=39	=39	=39	=39
!!pagebreak:original
8AA`>L	8eeJ]	8rg	p
8E`>J 8c`>	4ee)	8e 8a	.
8C`>L	.	8rg	.
8A`>J 8e`>	(2aa^>	8a 8ee	>
8BB`L	.	8rg	.
8F`>J 8d`>	.	8a 8dd	.
8E`>L	.	8rg	.
8B`>J 8e`>	8gg#X)	8g#X 8ee	]
=40	=40	=40	=40
8C`>L	4.rgggyy	8r	.
8A`>J 8e`>	.	8a 8ee	.
8AA`>L	.	8r	.
8A`>J 8e`>	(2ccc	8cc 8ee	>
8D`>L	.	8r	.
8A`>J 8f`>	.	8cc 8ff	.
8D`>L	.	8r	.
8G#X`>J 8f`>	[>8bb	8b 8ff	]
=41	=41	=41	=41
8C`>L	8bbL]	8r	.
8A`>J 8f`>	8aaJ)	8a 8ff	<
8C`>L	2.rbbbyy	8r	.
8A`>J 8e`>	.	8ee^^> 8aa^^> 8eee^^>	.
8BB`>L	.	8r	.
8F`>J 8d`>	.	8dd^^> 8aa^^> 8ddd^^>	.
8EE`>L<	.	8r	[
8E`>J 8B`> 8d`>	.	8ee^^> 8gg#X^^> 8eee^^>	.
*	*v	*v	*
=42	=42	=42
!!linebreak:original
8AA`>L	8r	.
8E`>J 8c`>	8cc^^> 8ee^^> 8ccc^^>	.
8BB`>L	8r	.
8E`>J 8d`>	8g#X^^> 8ee^^> 8gg#X^^>	>
8C`>L	8r	.
8E`>J 8e`>	8a^^> 8ee^^> 8aa^^>	.
8AA`>L	8r	.
8E`>J 8c`>	8cc^^> 8ee^^> 8ccc^^>	]
=43	=43	=43
8EE`>L<	8r	.
8E`>J 8d`>	8b^^> 8ee^^> 8bb^^>	.
8AA`>L	8r	.
8E`>J 8c`>	8a^^> 8ee^^> 8aa^^>	.
8BB`>L	8r	.
8E`>J 8G#X`> 8d	8e^^>\ 8b^^>\ 8ee^^>\	.
8AA`>L	8r	.
8E`>J 8A`> 8c`>	8a^^> 8ee^^> 8aa^^>	.
=44	=44	=44
8EE`>L<	8r	.
8E`>J 8G#X`> 8d`>	8b^^> 8ee^^> 8bb^^>	.
8AA`>L	8r	.
8E`>J 8A`> 8c`>	8a^^> 8ee^^> 8aa^^>	.
8BB`>L	8r	.
8E`>J 8G#`> 8d`>	8e^^>\ 8b^^>\ 8ee^^>\	<
8AA`>L	8r	.
8E`>J 8A`> 8c`>	8a^^> 8ee^^> 8aa^^>	.
=45	=45	=45
!!linebreak:original
8GG`>nL	8r	.
8Gny`>J 8e`>	8b^^> 8ee^^> 8bb^^>	.
8AA`>L	8r	.
8A`>J 8e`>	8cc^^> 8ee^^> 8ccc^^>	[
8BB`>L	8r	>
8B`>J 8e`>	8g^^> 8b^^> 8gg^^>	.
8BB`>L	8r	.
8B`>J 8d#X`>	8a^^> 8b^^> 8ff#X^^>	.
=46	=46	=46
8E`>L	8r	.
8B`>J 8e`>	8g#X^^> 8b^^> 8ee^^>	]
8D#X`>L	8r	.
8c`>J 8f#X`>	8a^^> 8cc^^> 8ff#X^^>	.
8Dn`>L	8r	.
8B`>J 8fn`>	8gn^^> 8b^^> 8ffn^^> 8ggn^^>	.
*ped	*	*
!LO:TX:t=złamana belka	!	!
8EE`>/L	8r	.
*Xped	*	*
8B`>\J 8e`>\	8g#X^^> 8dd^^> 8ee^^> 8gg#X^^>	.
=47	=47	=47
*	*^	*
8AA`>L	4.rbbbyy	8r	.
8A`>J 8e`>	.	8a`> 8cc`> 8ee`> 8aa`>	.
8C`>L	.	8r	.
8A`>J 8e`>	(2aa	8a 8ee	>
8BB`>L	.	8r	.
8F`>J 8d`>	.	8a 8dd	.
8E`>L	.	8r	.
8B`>J 8e`>	[<8gg#XL	8g#X 8ee	]
=48	=48	=48	=48
!!pagebreak:original
8C`>L	8gg#XJ]	8r	.
8A`>J 8e`>	4aa)	8a 8ee	.
8AA`>L	.	8r	.
8A`>J 8e`>	(2ccc	8cc 8ee	>
8D`>L	.	8r	.
8A`>J 8f`>	.	8cc 8ff	.
8D`>L	.	8r	.
8G#X`>J 8f`>	[<8bbL	8b 8ff	.
=49	=49	=49	=49
8C`>L	8bbJ]	8r	.
8A`>J 8f`>	4aa)	8a 8ff	]
8C`>L	.	8r	.
8A`>J 8e`>	(4eee	8ee 8aa	<
8BB`>L	.	8r	.
8F`>J 8d`>	4ddd	8dd 8aa	.
8EE`>L<	.	8r	.
8E`>J 8B`> 8d`>	[<8eeeL	8ee 8gg#X	[
=50	=50	=50	=50
8AA`>L	8eeeJ]	8r	.
8E`>J 8A`> 8c`>	4ccc	8cc 8ee	.
8BB`>L	.	8r	.
8E`>J 8G#X`> 8d`>	4bb	8b 8ee	>
8C`>L	.	8r	.
8E`>J 8A`> 8e`>	4.aa)	8a 8ee	.
8AA`>L	.	8r	.
8E`>J 8A`> 8c`>	.	8cc 8ee	]
=51	=51	=51	=51
!!linebreak:original
8EE`>L<	8rbbbyy	8r	.
8E`>J 8d`>	(4bb	8b 8ee	.
8AA`>L	.	8r	.
8E`>J 8c`>	4aa	8a 8ee	.
8BB`>L	.	8r	.
8E`>J 8G#X`> 8d`>	4ee	8e 8b	.
8AA`>L	.	8r	.
8E`>J 8A`> 8c`>	[<8aaL	8a 8ee	.
=52	=52	=52	=52
8EE`>L<	8aaJ]	8r	.
8E`>J 8d`>	4bb	8b 8ee	.
8AA`>L	.	8r	.
8E`>J 8c`>	4aa	8a 8ee	<
8BB`>L	.	8r	.
8E`>J 8d`>	4ee	8e 8b	.
*ped	*	*	*
8C#X`>L	.	8r	.
*Xped	*	*	*
8B-X`>J 8e`>	8ggn^>	8gn 8b-X	[
=53	=53	=53	=53
*^	*	*	*
!LO:N:vis=2	!	!	!	!
8D`>L<	2D	2rbbbyy	8r	.
8B-X`>J 8d`>	.	.	8g-X^> 8b-X^> 8gg-X^>	.
8F`>L<	.	.	8r	.
8B-`>J 8d`>	.	.	8f^> 8b-^> 8ff^>	>
!LO:TX:t=złamana belka	!	!	!	!
2rcyy	8DD`>L/	8rcccyy	8r	.
.	8F`>J\ 8B-`>\	4dd^>	8f 8b-	.
!LO:TX:t=złamana belka	!	!	!	!
.	8EE`>L/	.	8rg	.
.	8E`>J\ 8Bn`>\	8bn^>)	8d 8g#X	]
*v	*v	*	*	*
=54	=54	=54	=54
!!linebreak:original
8AA`>L<	8r	8rcccyy	p
8E`>J 8A`>	(2..a^	8c	.
8D`>L	.	8rc	.
8F`>J 8A`>	.	8d 8f	.
8AA`>L<	.	8rc	.
8E`>J 8A`>	.	8c 8e	.
8D`>L	.	8rc	.
8F`>J 8A`>	.	N(>8d 8f	.
=55	=55	=55	=55
8AA`>L<	4.aN)	8rc	pp
8E`>J 8A`>	.	4c 4e	.
*ped	*	*	*
!LO:TX:t=złamane belki w 3 ostatnich grupach	!	!	!
8CC`>L/	.	.	.
*Xped	*	*	*
8E`>J\ 8A`>\	4ee	4e 4a	>
*ped	*	*	*
8DD`>L/	.	.	.
*Xped	*	*	*
8F`>J\ 8B-X`>\	4dd	4f 4b-X	.
*ped	*	*	*
8EE`>L/	.	.	.
*Xped	*	*	*
8E`>J\ 8Bn`>\	[8bn	[8d [8g#X	]
=56	=56	=56	=56
*ped	*	*	*
8AA`>L<	8b]	8dL] 8g#]	.
*Xped	*	*	*
8E`>J 8A`>	2..a)	8cJ	.
8D`>L	.	8rc	.
8F`>J 8A`>	.	8d 8f	.
8AA`>L<	.	8rc	.
8E`>J 8A`>	.	8c 8e	.
8D`>L	.	8rc	.
8F`>J 8A`>	.	(>8d 8f	.
=57	=57	=57	=57
!!linebreak:original
*	*	*	*^
8AA`>L<	(4.a)	8rc	.	.
!	!	!	!	!LO:HP:a
8E`>J 8A`>	.	8c 8e	.	<
8C`>L	.	8rc	f	.
8E`>J 8c`>	4ee	8e 8a	.	.
*ped	*	*	*	*
8BB`>L	.	8r	.	.
*Xped	*	*	*	*
8B`>J 8f#X`>	4aa	8a 8dd#X	.	.
8E`>L	.	8r	.	.
8B`>J 8e`>	[<8gg#XL	8g#X 8ee	.	[
*	*	*	*v	*v
=58	=58	=58	=58
*ped	*	*	*
8AA`>L	8gg#XJ]	8r	.
*Xped	*	*	*
8A`>J 8e`>	4ggn	8gn 8cc#X	.
*ped	*	*	*
8D`>L	.	8r	.
!	!	!	!LO:HP:a
8A`>J 8d`>	4ff#X	8f#X 8dd	>
!LO:TX:t=złamana belka	!	!	!
8DD`/L	.	8r	.
*Xped	*	*	*
8F`>J\ 8B-X`>\	4ffn	8fn 8b-X	.
*ped	*	*	*
!LO:TX:t=złamana belka	!	!	!
8EE`>/L	.	8r	.
*Xped	*	*	*
8E`>J\ 8Bn`>\	[<8bnL	8d 8g#X	.
=59	=59	=59	=59
8AA`>L<	8bJ]	8rc	.
!	!LO:N:vis=4.	!	!
8E`>J 8A`>	4a	8c 8e	.
8D`>L	.	8rc	.
!	!LO:N:vis=4.	!	!
8F`>J 8A`>	4f	8d	.
*ped	*	*	*
!LO:TX:t=złamana belka	!	!	!
8DD`>/L	.	8rc	]
*Xped	*	*	*
8F`>J\ 8B-X`>\	4b-X/ 4dd/	4.rcyy	pp
*ped	*	*	*
!LO:TX:t=złamana belka	!	!	!
8EE`>/L	.	.	.
*Xped	*	*	*
8E`>J\ 8Bn`>\	[<8dL [<8g#X [>8bn	.	.
*	*v	*v	*
=60	=60	=60
!!linebreak:original
*ped	*	*
8FF`>L<	8dJ] 8g#X] 8b]	<
*Xped	*	*
8F`>J 8A`>	4c 4a	.
*ped	*	*
8CC`>L<	.	.
*Xped	*	*
8C`>J 8A`>	4e 4a 4ee	.
*ped	*	*
8DD`>L<	.	.
*Xped	*	*
8D`>J 8B-X`>	4f 4b-X 4dd	[>
*ped	*	*
8EE`>L<	.	.
*Xped	*	*
8E`>J 8Bn`>	(8dL [8g#X	]
=61	=61	=61
*	*^	*
8AA`>L<	8g#XJ)]	8dL	.
8E`>J 8A`>	2a	8cJ	.
!	!LO:TX:b:i:t=dimin. - - -	!	!
8D`>L	.	8re	.
8F`>J 8A`>	.	8d 8f	.
8AA`>L<	.	8re	.
8E`>J 8A`>	4cc	8c 8e	.
8D`>L	.	8re	.
8F`>J 8A`>	[<8b-XL	8d 8f	.
=62	=62	=62	=62
8AA`>L<	8b-XJ]	8re	.
8E`>J 8A`>	2a	8c 8e	.
!	!	!LO:TX:a:i:t=rall.	!
8D`>L	.	8re	.
8F`>J 8A`>	.	8d 8f	.
8AA`>L<	.	8re	.
8E`>J 8A`>	4cc	8c 8e	.
*ped	*	*	*
(8AAL<	.	8re	.
8DJ 8B-X)	8b-X	8d 8f	.
*	*v	*v	*
=63	=63	=63
!	!LO:TX:a:i:t=lento.	!
[1AA: 1D: [1F: 1B-X:	([1d: [<1f: [1b-X:)	.
=64	=64	=64
*	*^	*
1AA] 1F]	2b-X]	1d] 1f]	.
.	4dd	.	.
*Xped	*	*	*
.	4cc#X	.	.
*	*v	*v	*
=65	=65	=65
*ped	*	*
1AA;<: 1E: 1A:	1c#X;:) 1e: 1a:	.
==	==	==
*-	*-	*-
!!!system-decoration: {(s1,s2)}
!!!RDF**kern: > = above
!!!RDF**kern: < = below
!!title: @{OTL}; @{OPS} @{ONM} publisher: @{OCL}
!!!RDF**kern: N = linked
!!!RDF**dynam: > = "dim."
!!!ENC: Emilia Ziętek
!!!END: 2018-10-02
!!!EED:Jędrzej Mróz
!!!EST: revision finished 2018-10-03